src/assets/checkmark.svg

<?xml version="1.0" encoding="UTF-8" standalone="no"?>
<svg
   width="32"
   height="32"
   viewBox="0 0 8 8"
   version="1.1"
   id="svg16832"
   sodipodi:docname="checkmark.svg"
   inkscape:version="1.2.1 (9c6d41e, 2022-07-14)"
   xmlns:inkscape="http://www.inkscape.org/namespaces/inkscape"
   xmlns:sodipodi="http://sodipodi.sourceforge.net/DTD/sodipodi-0.dtd"
   xmlns="http://www.w3.org/2000/svg"
   xmlns:svg="http://www.w3.org/2000/svg">
  <defs
     id="defs16836" />
  <sodipodi:namedview
     id="namedview16834"
     pagecolor="#ffffff"
     bordercolor="#666666"
     borderopacity="1.0"
     inkscape:showpageshadow="2"
     inkscape:pageopacity="0.0"
     inkscape:pagecheckerboard="0"
     inkscape:deskcolor="#d1d1d1"
     showgrid="false"
     inkscape:zoom="7.375"
     inkscape:cx="-0.06779661"
     inkscape:cy="16"
     inkscape:window-width="1309"
     inkscape:window-height="456"
     inkscape:window-x="0"
     inkscape:window-y="38"
     inkscape:window-maximized="0"
     inkscape:current-layer="svg16832" />
  <g
     aria-label="✓"
     id="text16830"
     style="text-anchor:middle">
    <path
       d="M 2.9951172,5.4334764 Q 3.3095703,4.715703 3.668457,4.062871 4.0307617,3.406621 4.4135742,2.85291 4.8647461,2.203496 5.1245117,1.9163866 5.2919922,1.7318163 5.4389648,1.6121874 5.5244141,1.543828 5.7089844,1.5096483 q 0.4477539,-0.082031 0.6254883,-0.082031 0.078613,0 0.078613,0.054687 0,0.05127 -0.078613,0.1230468 Q 5.6508789,2.2137499 4.8989258,3.3450975 4.1503906,4.4764452 3.6342773,5.7479296 3.4394531,6.2230272 3.3608398,6.3324022 3.2856445,6.4383593 2.8823242,6.4383593 q -0.2631836,0 -0.3315429,-0.05127 Q 2.4858398,6.3358202 2.3115234,6.0623827 2.0107422,5.6077929 1.6655273,5.2420702 1.484375,5.0506639 1.484375,4.9481249 q 0,-0.1435547 0.2016602,-0.2802735 0.2016601,-0.1401367 0.3315429,-0.1401367 0.1811524,0 0.4340821,0.2050782 0.2563476,0.2016601 0.543457,0.7006835 z"
       style="font-size:7px"
       id="path16955" />
  </g>
</svg>

<svg xmlns="http://www.w3.org/2000/svg" width="32" height="32" viewBox="0 0 8 8"><path d="M2.995 5.433q.315-.717.673-1.37.363-.656.746-1.21.45-.65.71-.937.168-.184.315-.304.085-.068.27-.102.448-.082.625-.082.08 0 .08.054 0 .052-.08.123-.683.609-1.435 1.74-.749 1.131-1.265 2.403-.195.475-.273.584-.075.106-.479.106-.263 0-.331-.05-.065-.052-.24-.326-.3-.454-.645-.82-.182-.191-.182-.294 0-.143.202-.28.202-.14.332-.14.18 0 .434.205.256.201.543.7" aria-label="checkmark"/></svg>
